icon/fa/swatchbook.svg

<svg xmlns="http://www.w3.org/2000/svg" viewBox="0 0 512 512"><!--! Font Awesome Free 6.1.2 by @fontawesome - https://fontawesome.com License - https://fontawesome.com/license/free (Icons: CC BY 4.0, Fonts: SIL OFL 1.1, Code: MIT License) Copyright 2022 Fonticons, Inc.--><path d="M0 32C0 14.33 14.33 0 32 0h128c17.7 0 32 14.33 32 32v384c0 53-43 96-96 96-53.02 0-96-43-96-96V32zm128 32H64v64h64V64zM64 256h64v-64H64v64zm32 184c13.3 0 24-10.7 24-24s-10.7-24-24-24c-13.25 0-24 10.7-24 24s10.75 24 24 24zm128-24V154l75.4-75.37c12.5-12.5 32.8-12.5 45.3 0l90.5 90.47c12.5 12.5 12.5 32.8 0 45.3L223.6 425.9c.3-3.2.4-6.6.4-9.9zm150.8-96H480c17.7 0 32 14.3 32 32v128c0 17.7-14.3 32-32 32H182.8l192-192z"/></svg>

<svg xmlns="http://www.w3.org/2000/svg" viewBox="0 0 512 512" height="1em" width="1em">
<!--! Font Awesome Free 6.1.2 by @fontawesome - https://fontawesome.com License - https://fontawesome.com/license/free (Icons: CC BY 4.0, Fonts: SIL OFL 1.1, Code: MIT License) Copyright 2022 Fonticons, Inc.-->
  <path d="M0 32C0 14.33 14.33 0 32 0H160C177.7 0 192 14.33 192 32V416C192 469 149 512 96 512C42.98 512 0 469 0 416V32zM128 64H64V128H128V64zM64 256H128V192H64V256zM96 440C109.3 440 120 429.3 120 416C120 402.7 109.3 392 96 392C82.75 392 72 402.7 72 416C72 429.3 82.75 440 96 440zM224 416V154L299.4 78.63C311.9 66.13 332.2 66.13 344.7 78.63L435.2 169.1C447.7 181.6 447.7 201.9 435.2 214.4L223.6 425.9C223.9 422.7 224 419.3 224 416V416zM374.8 320H480C497.7 320 512 334.3 512 352V480C512 497.7 497.7 512 480 512H182.8L374.8 320z"/>
</svg>
